X:380
T: Paddy McNicholas'
S: "Music from Ireland 2" (Bulmer & Sharpley)
Z: B.Black
R: jig
M: 6/8
L: 1/8
K: D
d|cAA BGG|cAA A2d|cAA BGG|AFD D2d|
cAA BGG|ABA AFD|GFG BGB|AFD D2 :|
e|fef gfg|afd cBA|fef gfg|afd dfg|
agf gfe|fed e2d|cAF G2B|AFD D2 :|
